icon-svg/side-glassdoor-open.svg

<?xml version="1.0" encoding="UTF-8"?>
<svg width="24px" height="24px" viewBox="0 0 24 24" version="1.1" fill="#44739e" xmlns="http://www.w3.org/2000/svg" xmlns:xlink="http://www.w3.org/1999/xlink">
            <path d="m 2.6900001,2.8699999 h 0.31 V 22.19 h -0.31 z m -1.3200001,0 H 2.5 V 22.19 H 1.37 Z M 3.25,20.469999 h 6.0700002 v 1.73 H 3.25 Z M 9.5600004,2.8699999 H 10.72 V 22.19 H 9.5600004 Z M 5.6500001,16.440001 H 9.3200002 V 20.23 H 5.6500001 Z m 0,-4.140001 h 3.6700001 v 3.79 H 5.6500001 Z m 0,-4.1500004 H 9.3200002 V 11.94 H 5.6500001 Z M 3.25,2.8699999 h 6.0700002 v 0.87 H 3.25 Z m 2.4000001,1.1400003 h 3.6700001 v 3.79 H 5.6500001 Z M 5.37,20.23 H 3.25 V 16.44 H 5.37 Z M 3.45,20.07 H 5.16 V 16.61 H 3.45 Z M 5.37,16.09 H 3.25 V 12.3 H 5.37 Z M 3.45,15.92 H 5.16 V 12.46 H 3.45 Z M 5.37,11.94 H 3.25 V 8.15 H 5.37 Z M 3.45,11.78 H 5.16 V 8.32 H 3.45 Z M 5.37,7.8 H 3.25 V 4 H 5.37 Z M 3.45,7.63 H 5.16 V 4.17 H 3.45 Z m 7.27,-5.46 v 20 H 1.37 v 0.76 H 22.7 V 2.14 Z m 1.38,20 V 3.23 h 9.36 v 19 z"></path>

</svg>

<svg xmlns="http://www.w3.org/2000/svg" fill="#44739e" viewBox="0 0 24 24"><path d="M2.69 2.87H3v19.32h-.31zm-1.32 0H2.5v19.32H1.37Zm1.88 17.6h6.07v1.73H3.25Zm6.31-17.6h1.16v19.32H9.56ZM5.65 16.44h3.67v3.79H5.65Zm0-4.14h3.67v3.79H5.65Zm0-4.15h3.67v3.79H5.65Zm-2.4-5.28h6.07v.87H3.25Zm2.4 1.14h3.67V7.8H5.65Zm-.28 16.22H3.25v-3.79h2.12Zm-1.92-.16h1.71v-3.46H3.45Zm1.92-3.98H3.25V12.3h2.12Zm-1.92-.17h1.71v-3.46H3.45Zm1.92-3.98H3.25V8.15h2.12Zm-1.92-.16h1.71V8.32H3.45ZM5.37 7.8H3.25V4h2.12Zm-1.92-.17h1.71V4.17H3.45Zm7.27-5.46v20H1.37v.76H22.7V2.14Zm1.38 20V3.23h9.36v19z"/></svg>
